shader_type canvas_item;
uniform sampler2D SCREEN_TEXTURE : hint_screen_texture, filter_linear_mipmap;

void fragment(){
	vec4 color = texture(SCREEN_TEXTURE, UV);
	vec4 sprite_color = texture(TEXTURE, UV);
	COLOR = vec4(1.0 - color.rgb, sprite_color.a);
}